icons/svg/close-octagon.svg

﻿<?xml version="1.0" encoding="utf-8"?>
<!DOCTYPE svg PUBLIC "-//W3C//DTD SVG 1.1//EN" "http://www.w3.org/Graphics/SVG/1.1/DTD/svg11.dtd">
<svg xmlns="http://www.w3.org/2000/svg" xmlns:xlink="http://www.w3.org/1999/xlink" version="1.1" baseProfile="full" width="24" height="24" viewBox="0 0 24.00 24.00" enable-background="new 0 0 24.00 24.00" xml:space="preserve">
	<path fill="#000000" fill-opacity="1" stroke-width="0.2" stroke-linejoin="round" d="M 8.27125,2.9978L 2.9975,8.27125L 2.9975,15.7275L 8.27125,20.9963L 15.7275,20.9963L 21.0013,15.7275L 21.0013,8.27125L 15.7275,2.9978M 8.40875,7.0025L 12.0025,10.5913L 15.5913,7.0025L 17.0025,8.40875L 13.4087,12.0025L 17.0025,15.5913L 15.5913,17.0025L 12.0025,13.4088L 8.40875,17.0025L 7.0025,15.5913L 10.5912,12.0025L 7.0025,8.40875"/>
</svg>

<svg xmlns="http://www.w3.org/2000/svg" version="1.1" baseProfile="full" width="24" height="24" viewBox="0 0 24.00 24.00" xml:space="preserve"><path fill="#000" fill-opacity="1" stroke-width=".2" stroke-linejoin="round" d="M8.27 2.998L3 8.27v7.457l5.273 5.27h7.457l5.274-5.27V8.271L15.728 3M8.41 7.003L12 10.59l3.59-3.587L17 8.409 13.41 12l3.593 3.59L15.59 17l-3.588-3.593-3.593 3.593-1.407-1.412 3.588-3.588L7.004 8.41"/></svg>
